X:1
T:Happy Sunbeams
T:Happy Sunbeams
T:Thomas Benton
T:James Rowe, 1909
T:Public Domain Courtesy of the Cyber Hymnal™
C:Thomas Benton
Z:Public Domain
Z:Courtesy of the Cyber Hymnal™
%%score ( 1 2 ) ( 3 4 )
L:1/8
Q:1/4=105
M:2/4
K:G
V:1 treble 
V:2 treble 
V:3 bass 
V:4 bass 
V:1
 D[DG] [DF][DG] | [Fd]2 [DF]2 | [DG][DA] [GB][Gc] | [Gd]4 | [Ac][Ac] [GB][FA] | [GB] [Gd]3 | %6
w: 1.~We are hap- py|sun- beams,|Shin- ing day by|day,|Mak- ing o- thers|hap- py|
w: 2.~We are hap- py|sun- beams,|Shin- ing in the|gloom,|Love’s true light re-|flect- ing|
w: 3.~We are lit- tle|sun- beams,|With bright gleam and|glow,|We are help- ing|o- thers|
 [G^c][Gc] [Ge][Ge] | [Fd]4 | DF Ad | c2 D2 | GD GB | d4 | [Ac][Ac] [GB][FA] | [GB][Gd] [Gc][EA] | %14
w: as we go our|way,|Bright- ening gloom- y|plac- es,|Spread- ing mirth and|cheer,|Al- ways glow- ing|bright- ly for our|
w: as we jour- ney|home;|Much of care and|sad- ness|Dai- ly we re-|move|With our looks of|kind- ness and our|
w: ev- ery- where we|go;|Thus to our Re-|deem- er|We will prove our|love,|Till He bids us|join Him in His|
 [DG]2 [DF]2 | [DG]4 ||"^Refrain" [Bd][Bd] [GB][Ac] | [Bd] [Bd]3 | [Ac][Ac] [FA][GB] | [Ac]4 | %20
w: Sav- ior|dear.|We are hap- py|sun- beams,|Shin- ing day by|day,|
w: smiles of|love.|||||
w: home a-|bove.|||||
 [Bd][Bd] [GB][Ac] | [Bd][GB] [Gc][EA] | [DG]2 [DF]2 | [DG]4 |] %24
w: Mak- ing o- thers|hap- py all a-|long the|way.|
w: ||||
w: ||||
V:2
 D x3 | x4 | x4 | x4 | x4 | x4 | x4 | x4 | DF Ad | c2 D2 | GD GB | d4 | x4 | x4 | x4 | x4 || x4 | %17
 x4 | x4 | x4 | x4 | x4 | x4 | x4 |] %24
V:3
 [G,B,][G,B,] [G,A,][G,B,] | [D,A,]2 [D,C]2 | [G,B,][G,C] [G,D][G,A,] | [G,B,]4 | %4
w: ~ ~ ~ ~|~ ~|~ ~ ~ ~|~|
 [D,D][D,D] [D,D][D,D] | [G,D] [G,B,]3 | A,A, [A,,^C][A,,C] | [D,A,D]4 | D,F, A,D | C2 D,2 | %10
w: ~ ~ ~ ~|~ ~|~ ~ ~ ~|~|~ ~ ~ ~|~ ~|
 G,D, G,B, | D4 | [D,D][D,D] [D,D][D,D] | [G,D][G,B,] [C,E][C,C] | [D,B,]2 [D,A,]2 | [G,B,]4 || %16
w: ~ ~ ~ ~|~|~ ~ ~ ~|~ ~ ~ ~|~ ~|~|
 [G,D][G,D] [G,D][G,D] | [G,D][G,D] [G,D][G,D] | [D,D][D,D] [D,D][D,D] | [D,D][D,D] [D,D]2 | %20
w: ~ ~ ~ ~|lit- tle sun- beams,|Shin- ing bright- ly|day by day,|
 [G,D][G,D] [G,D][G,D] | [G,D][G,D] [C,E][C,C] | [D,B,][D,B,] [D,A,][D,A,] | [G,,G,B,]4 |] %24
w: ~ ~ ~ ~|ver- y hap- py|all a- long the|way.|
V:4
 x4 | x4 | x4 | x4 | x4 | x4 | A,A, x2 | x4 | D,F, A,D | C2 D,2 | G,D, G,B, | D4 | x4 | x4 | x4 | %15
 x4 || x4 | x4 | x4 | x4 | x4 | x4 | x4 | x4 |] %24

